blog/public/assets/images/app/graph.svg

<svg fill="none" height="150" viewBox="0 0 797 150" width="797" xmlns="http://www.w3.org/2000/svg" xmlns:xlink="http://www.w3.org/1999/xlink"><clipPath id="a"><path d="m0 0h797v150h-797z"/></clipPath><g clip-path="url(#a)"><path d="m794 150.007h-679c47-28 72-98.0002 110-98.0002s75 78.0002 117 88.0002 68-99.0002 171-98.0002c103 1.0001 120 108.0002 281 108.0002z" fill="#f06067"/><path d="m797 150.399h-797s77-101.0004 115-100.0004 58.288 50.2784 103 50.0004c62.27-.388 71.5-98.899 127.5-98.399 56 .49999 102.727 114.179 192.5 123.399 55.248 5.674 84.894-31.9155 140-25 50.016 6.276 119 50 119 50z" fill="#009de4"/><path d="m797 150.399h-797s77-101.0004 115-100.0004 58.288 50.2784 103 50.0004c62.27-.388 71.5-98.899 127.5-98.399 56 .49999 102.727 114.179 192.5 123.399 55.248 5.674 84.894-31.9155 140-25 50.016 6.276 119 50 119 50z" stroke="#009de4"/></g></svg>

<svg width="797" height="150" viewBox="0 0 797 150" fill="none" xmlns="http://www.w3.org/2000/svg">
<g clip-path="url(#clip0)">
<path d="M794 150.007H115C162 122.007 187 52.0068 225 52.0068C263 52.0068 300 130.007 342 140.007C384 150.007 410 41.0068 513 42.0068C616 43.0069 633 150.007 794 150.007Z" fill="#F06067"/>
<g style="mix-blend-mode:multiply">
<path d="M797 150.399H0C0 150.399 77 49.3986 115 50.3986C153 51.3986 173.288 100.677 218 100.399C280.27 100.011 289.5 1.5 345.5 2C401.5 2.49999 448.227 116.179 538 125.399C593.248 131.073 622.894 93.4835 678 100.399C728.016 106.675 797 150.399 797 150.399Z" fill="#009DE4"/>
<path d="M797 150.399H0C0 150.399 77 49.3986 115 50.3986C153 51.3986 173.288 100.677 218 100.399C280.27 100.011 289.5 1.5 345.5 2C401.5 2.49999 448.227 116.179 538 125.399C593.248 131.073 622.894 93.4835 678 100.399C728.016 106.675 797 150.399 797 150.399Z" stroke="#009DE4"/>
</g>
</g>
<defs>
<clipPath id="clip0">
<rect width="797" height="150" fill="white"/>
</clipPath>
</defs>
</svg>
